lib/brands/logos/skrill.svg

<svg xmlns="http://www.w3.org/2000/svg" fill="none" aria-hidden="true" viewBox="0 0 179 80"><g id="Skrill"><g id="skrill-logo-web-1-rgb"><path id="Fill-1" fill="url(#paint0_linear_2761_247222)" fill-rule="evenodd" d="M121.439 27.0126C124.757 27.0126 127.447 24.324 127.447 21.0086C127.447 17.6912 124.757 15 121.439 15C118.124 15 115.435 17.6912 115.435 21.0086C115.435 24.324 118.124 27.0126 121.439 27.0126ZM75.4208 30.2551C75.1496 30.9361 73.1982 36.4483 68.4788 42.1612V17.7338L55.9039 20.2191V64.4965H68.4788V50.81C72.1208 56.2725 73.9193 64.4965 73.9193 64.4965H88.9814C87.4915 58.3027 80.9742 46.882 80.9742 46.882C86.8234 39.4661 89.3926 31.5642 89.8012 30.2551H75.4208ZM108.48 29.7929C97.2164 30.1544 91.4989 35.2076 91.4989 45.2527V64.4965H103.787V48.8037C103.787 42.7887 104.574 40.2104 111.712 39.9645V29.9691C110.51 29.7142 108.48 29.7929 108.48 29.7929ZM34.8145 35.1308C33.2743 35.0294 29.7084 34.799 29.7084 31.5888C29.7084 27.715 34.8422 27.715 36.7679 27.715C40.1536 27.715 44.5387 28.7155 47.6702 29.6522C47.6702 29.6522 49.417 30.268 50.9036 30.8987L51.0418 30.9361V20.3269L50.852 20.2707C47.1563 18.9777 42.8591 17.7338 34.892 17.7338C21.1551 17.7338 16.2878 25.7364 16.2878 32.5919C16.2878 36.5438 17.9817 45.8446 33.7139 46.9175C35.0475 46.9995 38.587 47.2034 38.587 50.5208C38.587 53.2598 35.6892 54.8749 30.8154 54.8749C25.4743 54.8749 20.2933 53.5128 17.1464 52.2211V63.148C21.8575 64.3829 27.1682 65 33.3924 65C46.8239 65 52.8396 57.4286 52.8396 49.9243C52.8396 41.4156 46.108 35.8873 34.8145 35.1308ZM115.347 64.4965H127.536V30.2938H115.347V64.4965ZM150.485 19.9144V64.4965H162.675V17.7338L150.485 19.9144ZM132.698 19.9144L144.877 17.7338V64.4965H132.698V19.9144Z" clip-rule="evenodd"/></g></g><defs><linearGradient id="paint0_linear_2761_247222" x1="55.8768" x2="66.8766" y1="15" y2="76.6722" gradientUnits="userSpaceOnUse"><stop stop-color="#6B195F"/><stop offset="1" stop-color="#4C255B"/></linearGradient></defs></svg>

<svg xmlns="http://www.w3.org/2000/svg" fill="none" aria-hidden="true" viewBox="0 0 179 80"><path fill="url(#a)" fill-rule="evenodd" d="M121.439 27.013A6.006 6.006 0 1 0 121.442 15a6.006 6.006 0 0 0-.003 12.013Zm-46.018 3.242c-.271.681-2.223 6.193-6.942 11.906V17.734l-12.575 2.485v44.278h12.575V50.81c3.642 5.462 5.44 13.686 5.44 13.686h15.062c-1.49-6.193-8.007-17.614-8.007-17.614 5.85-7.416 8.419-15.318 8.827-16.627h-14.38Zm33.059-.462c-11.264.361-16.981 5.415-16.981 15.46v19.243h12.288V48.804c0-6.015.787-8.594 7.925-8.84V29.97c-1.202-.255-3.232-.176-3.232-.176ZM34.814 35.13c-1.54-.102-5.106-.332-5.106-3.542 0-3.874 5.134-3.874 7.06-3.874 3.386 0 7.77 1 10.902 1.937 0 0 1.747.616 3.234 1.247l.138.037v-10.61l-.19-.055c-3.696-1.293-7.993-2.537-15.96-2.537-13.737 0-18.604 8.002-18.604 14.858 0 3.952 1.694 13.253 17.426 14.325 1.334.082 4.873.286 4.873 3.604 0 2.739-2.898 4.354-7.772 4.354-5.34 0-10.522-1.362-13.669-2.654v10.927C21.858 64.383 27.168 65 33.392 65c13.432 0 19.448-7.571 19.448-15.076 0-8.508-6.732-14.037-18.026-14.793Zm80.533 29.365h12.189V30.294h-12.189v34.203Zm35.138-44.582v44.582h12.19V17.734l-12.19 2.18Zm-17.787 0 12.179-2.18v46.762h-12.179V19.914Z" clip-rule="evenodd"/><defs><linearGradient id="a" x1="55.877" x2="66.877" y1="15" y2="76.672" gradientUnits="userSpaceOnUse"><stop stop-color="#6B195F"/><stop offset="1" stop-color="#4C255B"/></linearGradient></defs></svg>
